X:18439
T:Waltz,A. CJF.025
M:3/4
L:1/8
Q:120
C: 
S: C.J.Fox MS, 1829/33, Beverley,E.Yorks.
R:Waltz
O:England
A:East Yorkshire
B:Kidson Coll.Mitchell Lib.M1805
Z:P J Headford 2000
K:G
GB|(dgb).a.g.f|(eac').b.a.g|(fad').c'.b.a|(bgfagb)|!
(dgb).a.g.f|(eac').b.a.g|(fad').^c'.=c'.a|g4:|:!
d2|(cdAdcd)|(BdgdBd)|(cdAdcd)|(Bdgd)b2|!
(dgb).a.g.f|(egc').b.a.g|(fad').^c'.=c'.a|g4:|]


